X:1
T:Title
L:1/8
Q:1/4=110
M:4/4
K:D
V:1 treble nm="Church Organ, Staff"
V:1
 D3 E F2 A2 | G2 d2 c2 B2 | A3 A G2 F2 | E2 F2 D4 | D3 E F2 A2 | G2 d2 c2 B2 | A3 E F2 A2 | %7
w: By~Rev.~J.~S.~B.~Hodges,~D.~D. * * *|||||||
 B3 B A4 | G3 G F2 E2 | A3 A G2 F2 | B3 B c2 d2 | A2 A2 A4 | d2 A2 B2 F2 | A3 G F2 D2 | %14
w: |||||||
 d2 A2 B2 F2 | A2 A2 A4 | z FFF- F/ z/ A2 A- | A d2 d- d2- d/ z/ d- | d2 dc- c/ z/ B2 ^A- | %19
w: |||||
 A ^G2 F- F2- F/ z/ z | FF F2 ^A2 A2 | c2 c4 d2- | dc B2 A2 G2 | F2 B4 E2 | FG A2 d2 d2 | %25
w: ||||||
 c2 d4 z2 |] %26
w: |

